build/system/SnatRouterSolid.svg

<svg xmlns="http://www.w3.org/2000/svg" fill="none" viewBox="0 0 24 24" focusable="false"><path d="M0 0H24V24H0z"/><path fill="#74767B" d="M6.04365 2.95923C4.39451 2.95923 3.05762 4.29612 3.05762 5.94526C3.05762 7.5944 4.39451 8.93129 6.04365 8.93129C7.46955 8.93129 8.66202 7.93184 8.95873 6.59526L10.109 6.59526C11.4069 6.59526 12.459 7.64739 12.459 8.94526L12.459 15.0666C12.459 16.3645 11.4069 17.4166 10.109 17.4166L8.95873 17.4166C8.66202 16.08 7.46955 15.0806 6.04365 15.0806C4.39451 15.0806 3.05762 16.4175 3.05762 18.0666C3.05762 19.7157 4.39451 21.0526 6.04365 21.0526C7.46955 21.0526 8.66202 20.0532 8.95873 18.7166L10.109 18.7166C12.1248 18.7166 13.759 17.0824 13.759 15.0666L13.759 12.6695L18.7324 12.6695L17.2121 14.0946C16.9502 14.3401 16.937 14.7514 17.1825 15.0133C17.428 15.2752 17.8393 15.2885 18.1012 15.043L20.8203 12.4941C20.9514 12.3712 21.0258 12.1995 21.0258 12.0198C21.0258 11.8402 20.9514 11.6685 20.8203 11.5456L18.1012 8.99666C17.8393 8.75115 17.428 8.76443 17.1825 9.02634C16.937 9.28824 16.9502 9.69958 17.2121 9.9451L18.7316 11.3695L13.759 11.3695L13.759 8.94526C13.759 6.92942 12.1248 5.29526 10.109 5.29526L8.95873 5.29526C8.66202 3.95868 7.46955 2.95923 6.04365 2.95923Z"/></svg>

<svg xmlns="http://www.w3.org/2000/svg" fill="none" viewBox="0 0 24 24" focusable="false"><path fill="#74767B" d="M6.04 2.95c-1.65 0-2.99 1.34-2.99 2.99s1.34 2.99 2.99 2.99c1.42 0 2.62-1 2.91-2.34h1.15c1.3 0 2.35 1.05 2.35 2.35v6.12c0 1.3-1.05 2.35-2.35 2.35H8.95a2.98 2.98 0 0 0-2.91-2.33c-1.65 0-2.99 1.33-2.99 2.98s1.34 2.99 2.99 2.99c1.42 0 2.62-1 2.91-2.34h1.15c2.02 0 3.65-1.63 3.65-3.65v-2.4h4.98l-1.52 1.43a.65.65 0 0 0-.03.92c.24.26.65.27.92.03l2.72-2.55c.13-.12.2-.3.2-.48a.65.65 0 0 0-.2-.47L18.1 8.99a.66.66 0 0 0-.92.03.65.65 0 0 0 .03.92l1.52 1.42h-4.98V8.94c0-2.02-1.63-3.65-3.65-3.65H8.95a2.98 2.98 0 0 0-2.91-2.34"/></svg>
